data/styles/clear/style-clear/symbols/kindergarten-m.svg

<?xml version="1.0" encoding="UTF-8"?>
<svg width="24px" height="24px" viewBox="0 0 24 24" version="1.1" xmlns="http://www.w3.org/2000/svg" xmlns:xlink="http://www.w3.org/1999/xlink">
    <title>kindergarten-m</title>
    <g id="Page-1" stroke="none" stroke-width="1" fill="none" fill-rule="evenodd">
        <g id="kindergarten-m" fill-rule="nonzero">
            <circle id="Oval" fill="#FFFFFF" opacity="0.6" cx="12" cy="12" r="12"></circle>
            <circle id="Oval" fill="#717065" cx="12" cy="12" r="11"></circle>
            <g id="rocking-horse" transform="translate(5.000000, 5.000000)" fill="#FFFFFF">
                <path d="M13.8626454,3.04888273 L12.6431415,1.24383976 L12.83154,0.50968742 C12.8566142,0.411824139 12.8396337,0.307917889 12.7846181,0.22312492 C12.7296025,0.138331951 12.6416376,0.080472576 12.541997,0.0635467948 C11.5705009,-0.101664143 10.7407001,0.0554803885 10.0757548,0.532464764 C8.82991886,1.42619523 8.53816105,3.20077726 8.42832121,3.8874882 L4.80089933,3.8874882 C4.58094621,3.8874882 4.35741105,3.92098429 4.13795011,3.98641789 C3.95138371,3.38518351 3.39581339,2.94779289 2.74112199,2.94779289 L2.28934855,2.94779289 C1.47228996,2.94779289 0.819649332,3.61457023 0.819649332,4.43165617 L0.819649332,7.73866398 C0.819649332,7.87757023 0.893176676,8.00417179 1.01832902,8.06435539 C1.06817668,8.0883632 1.11865324,8.10009367 1.17189152,8.10009367 C1.25241886,8.10009367 1.33073136,8.07321476 1.39600089,8.02104289 L2.44296574,7.06824992 C2.70445402,8.3679257 3.10274308,9.63303898 3.46433683,10.6361718 C2.78279386,10.3873984 2.21461808,10.062664 1.82658293,9.6944257 C1.46200871,9.34871867 0.893532144,9.30491398 0.474926676,9.59016398 C0.201680582,9.77648429 0.0298251131,10.072453 0.00349308182,10.4022187 C-0.0225655119,10.7282929 0.0981024568,11.0437304 0.334407144,11.267457 C0.939524332,11.8411835 1.73358683,12.3112773 2.69452824,12.6647226 C3.89784464,13.106953 5.30331339,13.3407148 6.75903996,13.3407148 C8.21452043,13.3407148 9.6198798,13.106953 10.8232509,12.6647226 C11.7838368,12.311578 12.5778446,11.841539 13.1831532,11.2676757 C13.4196767,11.0437851 13.5403446,10.7283202 13.5142861,10.402246 C13.4879267,10.0724804 13.3161259,9.77651164 13.0429618,9.59024601 C12.8616728,9.46659758 12.6497587,9.40124601 12.4301337,9.40124601 C12.153415,9.40124601 11.8911064,9.50534367 11.6913056,9.69450773 C11.3070712,10.0589179 10.7466884,10.3810273 10.0748525,10.6288163 C10.6255829,9.2569257 11.1839423,7.84062883 11.1839423,6.44913273 C11.1839423,4.86352336 11.5489814,4.48448429 11.7059071,4.39507023 C11.9299892,4.26745695 12.2467392,4.41645304 12.415997,4.51683195 C12.713579,4.6929257 13.0896923,4.65822648 13.3519462,4.43026164 L13.7237392,4.10653898 C14.0297431,3.84042961 14.0895986,3.38589445 13.8626454,3.04888273 Z M5.37355949,4.61029289 L8.40950871,4.61029289 L8.40950871,4.69062883 C8.40950871,5.4379882 7.77346574,6.05598429 7.02616105,6.05598429 L6.73481339,6.05598429 C5.98745402,6.05598429 5.37355949,5.43796086 5.37355949,4.69062883 L5.37355949,4.61029289 Z M2.64826261,5.11191398 C2.40175871,5.50380461 2.29632121,5.9293007 2.32727433,6.3523632 L1.54250871,6.98739445 L1.54250871,4.43162883 L1.54248136,4.43162883 C1.54248136,4.01310539 1.87082511,3.67062492 2.28932121,3.67062492 L2.74109464,3.67062492 C3.10140324,3.67062492 3.39400871,3.92235148 3.46534855,4.26649992 C3.46575871,4.26844133 3.46668839,4.28077336 3.46780949,4.29624992 C3.13528214,4.50851945 2.84959464,4.7918007 2.64826261,5.11191398 Z M12.1885517,10.2191249 C12.253329,10.1577929 12.3391064,10.1240234 12.4301611,10.1240234 C12.5038798,10.1240234 12.5749462,10.1458984 12.635704,10.1873515 C12.7273329,10.249832 12.7849462,10.3491718 12.7937782,10.4598046 C12.7988095,10.5226952 12.7915087,10.6430351 12.6862079,10.7427304 C12.6861259,10.7427577 12.6860712,10.7428398 12.6859892,10.7429218 C12.1523759,11.2488905 11.4417665,11.6671952 10.5739032,11.9862421 C9.44955558,12.3994609 8.13043839,12.6178554 6.75903996,12.6178554 C5.38747746,12.6178554 4.06822355,12.3994609 2.94393058,11.9862695 C2.07576652,11.6669765 1.36510246,11.2486445 0.831516519,10.7427304 C0.726243082,10.6430624 0.718969644,10.5226952 0.723946207,10.4598046 C0.732805582,10.3491445 0.790418863,10.2498593 0.881911051,10.1874335 C0.944227457,10.144996 1.01616886,10.1241601 1.08737199,10.1241601 C1.17563761,10.1241601 1.26280949,10.156207 1.32887199,10.2188788 C1.93666886,10.7957226 2.84951261,11.256082 3.96787199,11.550082 C4.05075089,11.5720937 4.13803214,11.5937773 4.22736418,11.6145859 C4.62532511,11.7072265 5.04223527,11.7779101 5.46611808,11.8245312 C6.30570793,11.9177187 7.20116105,11.9181015 8.03861808,11.8257343 C8.46747746,11.7793866 8.88870793,11.7083202 9.28997746,11.6146679 C9.36626652,11.5970038 9.44848918,11.5766054 9.54977043,11.5503007 C10.6682665,11.2558632 11.5808095,10.7954765 12.1885517,10.2191249 Z M6.72272746,8.37202726 C6.75089152,8.37202726 6.78351261,8.37202726 6.81159464,8.37202726 C7.67759855,8.37202726 7.65052824,9.18129289 7.65052824,9.24757414 L7.65052824,11.1371913 C7.07226261,11.1833202 6.45782121,11.1829921 5.87955558,11.136371 L5.87955558,9.24757414 C5.87955558,9.21082414 5.85541105,8.37202726 6.72272746,8.37202726 Z M13.2494071,3.5611132 C13.2493798,3.56114054 13.2492978,3.56119523 13.2492704,3.56122258 L12.8775868,3.88483586 C12.8509267,3.9080507 12.813329,3.91193351 12.7843993,3.89484367 C12.2597275,3.58367179 11.7496571,3.53819914 11.3481689,3.76690226 C10.7512548,4.10686711 10.4610829,4.98421867 10.4610829,6.4490507 C10.4610829,7.72723429 9.9077548,9.10503117 9.37266496,10.4374921 C9.31212589,10.5882109 9.25013761,10.7426484 9.18957121,10.8954452 C9.16786027,10.9006952 9.15273918,10.9057538 9.13228605,10.9104843 C8.88457902,10.9683163 8.62637199,11.0166601 8.37336027,11.0554062 L8.37336027,9.24749211 C8.37336027,8.94028508 8.24079777,7.65452726 6.91118058,7.65452726 C6.88957902,7.65452726 6.86352043,7.65102726 6.84139933,7.65004289 C6.78848918,7.64733586 6.7315048,7.64730851 6.67843058,7.65017961 C6.65398527,7.65151945 6.63476261,7.65556633 6.61015324,7.65556633 C5.27788371,7.65556633 5.15669621,8.93120695 5.15669621,9.24746476 L5.15669621,11.0535741 C4.90371183,11.0150195 4.64148527,10.9672226 4.39730558,10.9103749 C4.3768798,10.9056445 4.35404777,10.9006952 4.33386808,10.8958554 C3.89716105,9.74711711 3.34500871,8.09478898 3.06202824,6.4411757 C3.05910246,6.42463273 3.05541105,6.40806242 3.05303214,6.39335148 C2.94499699,5.70013273 3.47839152,5.08626554 4.02335246,4.80902726 C4.22864933,4.70410929 4.46995793,4.64028898 4.65067277,4.61997258 L4.65067277,4.69054679 C4.65067277,5.83646867 5.58886418,6.77873429 6.73478605,6.77873429 L7.02613371,6.77873429 C8.17205558,6.77873429 9.13231339,5.83644133 9.13231339,4.69054679 L9.13231339,4.25080461 C9.13231339,4.24443351 9.11768449,4.23852726 9.11735636,4.23240226 C9.12837589,4.17692179 9.13245011,4.10763273 9.14625871,4.02100773 C9.24983683,3.37030851 9.48884855,1.84644133 10.50054,1.12071086 C10.9155361,0.823019451 11.4279032,0.69212492 12.0303954,0.729831951 L11.9033564,1.22149992 C11.8776532,1.32166008 11.8956454,1.42797258 11.9535321,1.51364054 L13.2635165,3.45291398 C13.2868407,3.48753117 13.2806337,3.5339882 13.2494071,3.5611132 Z" id="Shape"></path>
                <circle id="Oval" cx="11.3721767" cy="2.27475383" r="1"></circle>
            </g>
        </g>
    </g>
</svg>

<?xml version="1.0" encoding="UTF-8"?>
<svg width="24px" height="24px" version="1.1" viewBox="0 0 24 24" xmlns="http://www.w3.org/2000/svg">
  <title>kindergarten-m</title>
  <g fill="none" fill-rule="evenodd">
    <g id="kindergarten-m" fill-rule="nonzero">
      <circle id="Oval" cx="12" cy="12" r="12" fill="#fff" opacity=".6"/>
      <circle cx="12" cy="12" r="11" fill="#717065"/>
      <g id="rocking-horse" transform="translate(5 5)" fill="#fff">
        <path id="Shape" d="m13.8626 3.04888-1.2195-1.80504.188399-.734152c.02507-.0978633.0081-.20177-.04692-.286562-.05502-.084793-.14298-.142652-.242621-.159578-.971498-.165211-1.8013-.0080664-2.46624.468918-1.24584.89373-1.53759 2.66831-1.64743 3.35502h-3.62742c-.219953 0-.443488.033496-.662949.09893-.186566-.601235-.742137-1.03863-1.39683-1.03863h-.451774c-.817058 0-1.4697.666777-1.4697 1.48386v3.30701c0 .138906.0735273.265508.19868.325691.049848.024008.100324.035738.153562.035738.080527 0 .15884-.026879.224109-.079051l1.04696-.952792c.261488 1.29968.659777 2.56479 1.02137 3.56792-.681543-.248774-1.24972-.573508-1.63775-.941746-.364574-.345707-.933051-.389512-1.35166-.104262-.273246.18632-.445102.482289-.471434.812055-.0260586.326074.0946094.641511.330914.865238.605117.573727 1.39918 1.04382 2.36012 1.39727 1.20332.44223 2.60879.675992 4.06451.675992 1.45548 0 2.86084-.233762 4.06421-.675992.960586-.353145 1.75459-.823184 2.3599-1.39705.236524-.223891.357192-.539356.331133-.86543-.02636-.329766-.19816-.625734-.471324-.812-.181289-.123648-.393203-.189-.612828-.189-.276719 0-.539028.104098-.738828.293262-.384235.36441-.944618.686519-1.61645.934308.55073-1.37189 1.10909-2.78819 1.10909-4.17968 0-1.58561.365039-1.96465.521965-2.05406.224082-.127613.540832.021383.71009.121762.297582.176094.673695.141395.935949-.08657l.371793-.323723c.306004-.266109.36586-.720644.138906-1.05766zm-7.13992 5.32314h.088867c.866004 0 .838934.809266.838934.875547v1.88962c-.578266.04613-1.19271.0458-1.77097-.00082v-1.8888c0-.03675-.024144-.875547.843172-.875547z"/>
        <circle cx="11.3722" cy="2.27475" r="1"/>
      </g>
    </g>
  </g>
</svg>
